X:452
T: Lunan shange
N: C1487
O: China,Yunnan
S: II, 57]
R: Shange. Nann qing]
M: 2/4
L: 1/16
K: C
c2c2A2c2 | d6e2 | e3cd3e |
c2d2A4 | G6c2 | A4G2A2 | D8 |
D2D2D2G2 | B2G2A4 |
c3dA4 | G6c2 | A4G2A2 | D8

@@@ Tune index: 6453
